X:1
T:La Comtesse de Rudolstadt
C:Simon Wascher 
F:http://simonwascher.info/
Z:abc transcription Simon Wascher
M:3/4
L:1/8
K:Gm
B2BA GB | A4GF | D2B2AB | GF DF GD |
dB GB dB | cA DA cA | BG DG BG | AG AD GA :|
|:\
BA BA GB | cB cB Ac | BA BA GB | AG AB cd |
BA BA GB | cB cB Ac | BA GA Bc | de dc BA :|
%%wordsfont Times-Italic 11pt
W:aus Simon Waschers TradArchiv
